icons/1_Primary/Coda.svg

<svg width="1024" height="1024" viewBox="0 0 1024 1024" fill="none" xmlns="http://www.w3.org/2000/svg">
<g clip-path="url(#clip0_2_1830)">
<path d="M512 1024C794.77 1024 1024 794.77 1024 512C1024 229.23 794.77 0 512 0C229.23 0 0 229.23 0 512C0 794.77 229.23 1024 512 1024Z" fill="#FF837D"/>
<path d="M681.33 291H342.67C332.895 291.016 323.523 294.899 316.602 301.802C309.681 308.704 305.772 318.065 305.73 327.84V696.17C305.775 705.943 309.685 715.302 316.606 722.202C323.527 729.102 332.897 732.984 342.67 733H681.33C691.103 732.984 700.473 729.102 707.394 722.202C714.315 715.302 718.225 705.943 718.27 696.17V679C717.65 656.91 717.03 610.87 717.03 590C717.03 578.34 708.42 568.52 697.33 568.52C685.02 568.52 677.01 575.88 670.85 582.02C652.39 598.6 624.69 601.67 600.68 597.37C589.59 594.92 579.12 591.85 570.5 586.37C544.03 571.02 526.79 542.16 526.79 511.47C526.79 480.78 544.03 452.54 570.5 436.57C579.74 431.05 590.2 427.98 600.67 425.57C624.06 421.26 652.4 424.33 670.87 440.92C677.64 447.06 685.65 454.41 697.35 454.41C708.43 454.41 717.04 444.6 717.04 432.94C717.04 412.68 717.66 366.02 718.28 343.94V327.94C718.264 318.146 714.366 308.758 707.439 301.833C700.513 294.909 691.124 291.013 681.33 291Z" fill="white"/>
</g>
<defs>
<clipPath id="clip0_2_1830">
<rect width="1024" height="1024" fill="white"/>
</clipPath>
</defs>
</svg>

<svg width="1024" height="1024" fill="none" xmlns="http://www.w3.org/2000/svg"><g clip-path="url(#a)"><path d="M512 1024c282.77 0 512-229.23 512-512S794.77 0 512 0 0 229.23 0 512s229.23 512 512 512Z" fill="#FF837D"/><path d="M681.33 291H342.67a37 37 0 0 0-36.94 36.84v368.33A37 37 0 0 0 342.67 733h338.66a37.002 37.002 0 0 0 36.94-36.83V679c-.62-22.09-1.24-68.13-1.24-89 0-11.66-8.61-21.48-19.7-21.48-12.31 0-20.32 7.36-26.48 13.5-18.46 16.58-46.16 19.65-70.17 15.35-11.09-2.45-21.56-5.52-30.18-11-26.47-15.35-43.71-44.21-43.71-74.9 0-30.69 17.24-58.93 43.71-74.9 9.24-5.52 19.7-8.59 30.17-11 23.39-4.31 51.73-1.24 70.2 15.35 6.77 6.14 14.78 13.49 26.48 13.49 11.08 0 19.69-9.81 19.69-21.47 0-20.26.62-66.92 1.24-89v-16A37 37 0 0 0 681.33 291Z" fill="#fff"/></g><defs><clipPath id="a"><path fill="#fff" d="M0 0h1024v1024H0z"/></clipPath></defs></svg>
